Simply-Blue-Circles/symbolic/places/folder-symbolic.svg

<svg xmlns="http://www.w3.org/2000/svg" width="24" height="24" version="1"><defs><linearGradient id="a"><stop offset="0"/><stop offset="1" stop-opacity="0"/></linearGradient></defs><path d="M4.366 5.024c-.76 0-1.372.61-1.372 1.37v2.284c0 .036.009.069.011.104v6.684h-.012v2.14c0 .759.61 1.37 1.37 1.37h15.272c.76 0 1.37-.611 1.37-1.37v-1.834h.002V9.13l-.019.004H5.63v2.023c0 .388-.256.7-.574.7-.318 0-.574-.312-.574-.7V8.788c0-.034.013-.064.017-.098-.005-.027-.017-.05-.017-.079 0-.266.201-.475.459-.508.022-.002.04-.013.063-.013h15.978l.025.003v-1.54h-9.918L9.56 5.024z" fill="gray"/></svg>

<?xml version="1.0" encoding="UTF-8" standalone="no"?>
<svg
   xmlns:dc="http://purl.org/dc/elements/1.1/"
   xmlns:cc="http://creativecommons.org/ns#"
   xmlns:rdf="http://www.w3.org/1999/02/22-rdf-syntax-ns#"
   xmlns:svg="http://www.w3.org/2000/svg"
   xmlns="http://www.w3.org/2000/svg"
   xmlns:sodipodi="http://sodipodi.sourceforge.net/DTD/sodipodi-0.dtd"
   xmlns:inkscape="http://www.inkscape.org/namespaces/inkscape"
   width="24"
   height="24"
   version="1"
   id="svg11"
   sodipodi:docname="folder-symbolic.svg"
   inkscape:version="0.92.4 (5da689c313, 2019-01-14)">
  <metadata
     id="metadata15">
    <rdf:RDF>
      <cc:Work
         rdf:about="">
        <dc:format>image/svg+xml</dc:format>
        <dc:type
           rdf:resource="http://purl.org/dc/dcmitype/StillImage" />
        <dc:title></dc:title>
      </cc:Work>
    </rdf:RDF>
  </metadata>
  <sodipodi:namedview
     pagecolor="#ffffff"
     bordercolor="#666666"
     borderopacity="1"
     objecttolerance="10"
     gridtolerance="10"
     guidetolerance="10"
     inkscape:pageopacity="0"
     inkscape:pageshadow="2"
     inkscape:window-width="1085"
     inkscape:window-height="480"
     id="namedview13"
     showgrid="false"
     inkscape:zoom="9.8333333"
     inkscape:cx="1.0677966"
     inkscape:cy="12"
     inkscape:window-x="0"
     inkscape:window-y="25"
     inkscape:window-maximized="0"
     inkscape:current-layer="svg11" />
  <defs
     id="defs7">
    <linearGradient
       id="a">
      <stop
         offset="0"
         id="stop2" />
      <stop
         offset="1"
         stop-opacity="0"
         id="stop4" />
    </linearGradient>
  </defs>
  <path
     d="m 4.366,5.024 c -0.76,0 -1.372,0.61 -1.372,1.37 v 2.284 c 0,0.036 0.009,0.069 0.011,0.104 v 6.684 H 2.993 v 2.14 c 0,0.759 0.61,1.37 1.37,1.37 h 15.272 c 0.76,0 1.37,-0.611 1.37,-1.37 v -1.834 h 0.002 V 9.13 L 20.988,9.134 H 5.63 v 2.023 c 0,0.388 -0.256,0.7 -0.574,0.7 -0.318,0 -0.574,-0.312 -0.574,-0.7 V 8.788 C 4.482,8.754 4.495,8.724 4.499,8.69 4.494,8.663 4.482,8.64 4.482,8.611 4.482,8.345 4.683,8.136 4.941,8.103 4.963,8.101 4.981,8.09 5.004,8.09 h 15.978 l 0.025,0.003 V 6.553 H 11.089 L 9.56,5.024 Z"
     id="path9"
     inkscape:connector-curvature="0"
     style="fill:#808080" />
</svg>
